X:389
T:Pipe Major Jim Christie of Wick 
C:Joe Buchanan's Scottish Tome - Page 344.0
I:344 0
R:March
Z:Carl Allison
L:1/16
M:2/4
K:C
(B<d) | "Am" e2(d>e) A>AA>B | e>AB<d e2(g>e) | "G" d2(B>d) e>dB<d | g>ed<B e>dB<G |
"Am" e2(d>e) A>AA>B | e>AB<d e2(a>g) | "G" e<ge>d "Em" B>de>g | "Am" B2A2 A2 :|
(f<g) | "Am" a2(A>a) "G" g2(eg) | "Am" e>dB<d e>Ag>e | "G" d2(B>d) e>dB<d | g>ed<B "Em" e>dB<G |
"Am" a2(A>a) "G" g2(eg) | "Am" e>dB<d e2(a>g) | "G" e<ge>d "Em" B>de>g | "Am" B2A2 A2(f<g) |
"Am" a2(A>a) "G" g2(eg) | "Am" e>dB<d e>Ag>e | "G" d2(B>d) e>dB<d | g>ed<B "Em" e>dB<G |]
"Am" e2(d>e) A>AA>B | e>AB<d e2(a>g) | "G" e<ge>d "Em" B>de<g | "Am" B2A2 A2 |
(B<d) | "Am" e2(d>e) A>AA>B | e>AB<d e2(A>e) | "G" d2(B>d) G>GG>B | d<BB>d "Em" e>dB<G :|
"Am" e2(d>e) A>AA>B | e>AB<d e2(a>g) | "G" e<ge>d "Em" B>de>g | "Am" B2A2 A2 |
(f<g) | "Am" a>AA>a "G" g<ee>g | "Am" e>dB<d e2(A>e) | "G" d<BB>d e>GG>B | d>BB>d e>dB<G |
"Am" a>AA>a "G" g<ee>g | "Am" e>dB<d e2(a>g) | "G" e<ge>d "Em" B>de>g | "Am" B2A2 A2(f<g) |
"Am" a>AA>a "G" g<ee>g | "Am" e>dB<d e>Ag>e | "G" d<BB>d e>GG>B | B2A2 e>dB<G |
"Am" e2(d>e) A>AA>B | e>AB<d e2(a>g) | "G" e<ge>d "Em" B>de>g | "Am" B2A2 A2 |]

